src/components/Home/Steps/assets/step-connect.svg

<svg width="95" height="85" viewBox="0 0 95 85" fill="none" xmlns="http://www.w3.org/2000/svg">
<path d="M37 76V37.5094C37.0954 36.2831 37.6635 35.137 38.5907 34.3008C39.5179 33.4646 40.7356 33 42 33C43.2644 33 44.4821 33.4646 45.4093 34.3008C46.3365 35.137 46.9046 36.2831 47 37.5094V63.0216" fill="white"/>
<path d="M49.5 59C54.7467 59 59 54.7467 59 49.5C59 44.2533 54.7467 40 49.5 40C44.2533 40 40 44.2533 40 49.5C40 54.7467 44.2533 59 49.5 59Z" stroke="#454545" stroke-width="1.19" stroke-linecap="round" stroke-linejoin="round"/>
<path d="M93 22H2V79H93V22Z" stroke="#515151" stroke-width="2.38" stroke-linecap="round" stroke-linejoin="round"/>
<path d="M2 84H93" stroke="#515151" stroke-width="1.19" stroke-linecap="round" stroke-linejoin="round"/>
<path d="M72.9293 18.7558C72.9744 19.1182 72.998 19.4829 73 19.8479C73.0075 22.2655 72.0336 24.5872 70.2921 26.3031C68.5506 28.0191 66.1839 28.989 63.7117 29H37.2748C34.8051 28.9854 32.442 28.0138 30.7036 26.2982C28.9651 24.5827 27.9931 22.2631 28.0007 19.8479C27.9956 19.4827 28.0192 19.1175 28.0713 18.7558C28.2827 16.9387 29.0484 15.226 30.2687 13.8403C31.4891 12.4546 33.1076 11.4601 34.9138 10.9862C34.9544 8.60096 35.9471 6.32577 37.68 4.64669C39.4129 2.9676 41.7486 2.01775 44.188 2.00003C46.5579 1.99359 48.8382 2.88554 50.5498 4.48852C52.1914 3.51733 54.0741 3.00563 55.9927 3.00924C58.387 3.02205 60.7073 3.82279 62.5795 5.28243C64.4517 6.74207 65.7668 8.7756 66.313 11.0553C68.0652 11.5653 69.6259 12.5666 70.8019 13.9354C71.978 15.3041 72.7176 16.9801 72.9293 18.7558Z" fill="#B69538"/>
<path d="M28.0713 18.7558C28.2827 16.9387 29.0484 15.226 30.2687 13.8403C31.4891 12.4546 33.1077 11.4601 34.9139 10.9862C34.9508 8.59984 35.9424 6.32262 37.6761 4.64278C39.4097 2.96295 41.7475 2.01423 44.188 2.00003C46.5579 1.99359 48.8382 2.88554 50.5498 4.48852C52.1914 3.51733 54.0741 3.00563 55.9927 3.00924C58.387 3.02205 60.7073 3.82279 62.5795 5.28243C64.4517 6.74207 65.7668 8.7756 66.313 11.0553C68.0652 11.5653 69.6259 12.5666 70.8019 13.9354C71.978 15.3041 72.7176 16.9801 72.9293 18.7558C72.9744 19.1182 72.998 19.4829 73 19.8479C73.0075 22.2655 72.0336 24.5872 70.2921 26.3031C68.5506 28.0191 66.1839 28.989 63.7117 29H37.2748C34.8051 28.9854 32.442 28.0138 30.7036 26.2982C28.9651 24.5827 27.9931 22.2631 28.0007 19.8479C27.9956 19.4827 28.0192 19.1175 28.0713 18.7558V18.7558Z" stroke="#454545" stroke-width="2.38" stroke-linecap="round" stroke-linejoin="round"/>
<path d="M52.4396 48.4761L48.6621 46.1588C48.4939 46.0549 48.303 46.0001 48.1087 46C47.9144 45.9999 47.7236 46.0544 47.5552 46.1581C47.3868 46.2618 47.2469 46.4111 47.1494 46.5909C47.052 46.7708 47.0005 46.9749 47 47.1827V51.8173C47.0005 52.0251 47.052 52.2292 47.1494 52.409C47.2469 52.5889 47.3868 52.7381 47.5552 52.8419C47.7236 52.9456 47.9144 53.0001 48.1087 53C48.303 52.9999 48.4939 52.9451 48.6621 52.8412L52.4396 50.5374C52.6098 50.4338 52.7512 50.2839 52.8497 50.1029C52.9481 49.9219 53 49.7162 53 49.5067C53 49.2973 52.9481 49.0916 52.8497 48.9105C52.7512 48.7295 52.6098 48.5796 52.4396 48.4761Z" fill="#B69538"/>
<path d="M52.4396 48.4761L48.6621 46.1588C48.4939 46.0549 48.303 46.0001 48.1087 46C47.9144 45.9999 47.7236 46.0544 47.5552 46.1581C47.3868 46.2618 47.2469 46.4111 47.1494 46.5909C47.052 46.7708 47.0005 46.9749 47 47.1827V51.8173C47.0005 52.0251 47.052 52.2292 47.1494 52.409C47.2469 52.5889 47.3868 52.7381 47.5552 52.8419C47.7236 52.9456 47.9144 53.0001 48.1087 53C48.303 52.9999 48.4939 52.9451 48.6621 52.8412L52.4396 50.5374C52.6098 50.4338 52.7512 50.2839 52.8497 50.1029C52.9481 49.9219 53 49.7162 53 49.5067C53 49.2973 52.9481 49.0916 52.8497 48.9105C52.7512 48.7295 52.6098 48.5796 52.4396 48.4761V48.4761Z" stroke="#454545" stroke-width="1.19" stroke-linecap="round" stroke-linejoin="round"/>
<path d="M62 13C61.4161 11.5691 60.338 10.3244 58.9091 9.43126C57.4801 8.53815 55.7679 8.03895 54 8" stroke="#454545" stroke-width="2.38" stroke-linecap="round" stroke-linejoin="round"/>
</svg>

<svg width="95" height="85" fill="none" xmlns="http://www.w3.org/2000/svg"><path d="M37 76V37.51a4.827 4.827 0 0 1 1.59-3.21A5.093 5.093 0 0 1 42 33c1.264 0 2.482.465 3.41 1.3A4.827 4.827 0 0 1 47 37.51v25.512" fill="#fff"/><path d="M49.5 59a9.5 9.5 0 1 0 0-19 9.5 9.5 0 0 0 0 19z" stroke="#454545" stroke-width="1.19" stroke-linecap="round" stroke-linejoin="round"/><path d="M93 22H2v57h91V22z" stroke="#515151" stroke-width="2.38" stroke-linecap="round" stroke-linejoin="round"/><path d="M2 84h91" stroke="#515151" stroke-width="1.19" stroke-linecap="round" stroke-linejoin="round"/><path d="M72.93 18.756a9.022 9.022 0 0 1-2.637 7.547A9.437 9.437 0 0 1 63.711 29H37.275a9.436 9.436 0 0 1-6.571-2.702A9.021 9.021 0 0 1 28 19.848c-.005-.365.018-.73.07-1.092a9.014 9.014 0 0 1 2.198-4.916 9.347 9.347 0 0 1 4.645-2.854 9.041 9.041 0 0 1 2.766-6.34A9.453 9.453 0 0 1 44.188 2a9.273 9.273 0 0 1 6.362 2.489 10.655 10.655 0 0 1 5.443-1.48c2.394.013 4.714.814 6.587 2.273a10.4 10.4 0 0 1 3.733 5.773 9.364 9.364 0 0 1 4.489 2.88 9.038 9.038 0 0 1 2.127 4.82z" fill="#B69538"/><path d="M28.071 18.756a9.014 9.014 0 0 1 2.198-4.916 9.347 9.347 0 0 1 4.645-2.854 9.027 9.027 0 0 1 2.762-6.343A9.439 9.439 0 0 1 44.188 2a9.273 9.273 0 0 1 6.362 2.489 10.655 10.655 0 0 1 5.443-1.48c2.394.013 4.714.814 6.587 2.273a10.4 10.4 0 0 1 3.733 5.773 9.364 9.364 0 0 1 4.489 2.88 9.038 9.038 0 0 1 2.127 4.82c.045.363.069.728.071 1.093a9.022 9.022 0 0 1-2.708 6.455A9.437 9.437 0 0 1 63.712 29H37.275a9.436 9.436 0 0 1-6.571-2.702A9.021 9.021 0 0 1 28 19.848c-.005-.365.018-.73.07-1.092z" stroke="#454545" stroke-width="2.38" stroke-linecap="round" stroke-linejoin="round"/><path d="M52.44 48.476l-3.778-2.317a1.053 1.053 0 0 0-1.107 0 1.15 1.15 0 0 0-.406.432c-.097.18-.148.384-.149.592v4.634c0 .208.052.412.15.592.097.18.237.33.405.433a1.053 1.053 0 0 0 1.107 0l3.778-2.305a1.15 1.15 0 0 0 .41-.434 1.25 1.25 0 0 0 0-1.193 1.149 1.149 0 0 0-.41-.434z" fill="#B69538"/><path d="M52.44 48.476l-3.778-2.317a1.053 1.053 0 0 0-1.107 0 1.15 1.15 0 0 0-.406.432c-.097.18-.148.384-.149.592v4.634c0 .208.052.412.15.592.097.18.237.33.405.433a1.053 1.053 0 0 0 1.107 0l3.778-2.305a1.15 1.15 0 0 0 .41-.434 1.25 1.25 0 0 0 0-1.193 1.149 1.149 0 0 0-.41-.434z" stroke="#454545" stroke-width="1.19" stroke-linecap="round" stroke-linejoin="round"/><path d="M62 13c-.584-1.43-1.662-2.676-3.09-3.569C57.48 8.538 55.767 8.04 54 8" stroke="#454545" stroke-width="2.38" stroke-linecap="round" stroke-linejoin="round"/></svg>
